theme/essential/pix_core/i/agg_mean.svg

<!DOCTYPE svg PUBLIC "-//W3C//DTD SVG 1.1//EN" "http://www.w3.org/Graphics/SVG/1.1/DTD/svg11.dtd" [
	<!ENTITY ns_flows "http://ns.adobe.com/Flows/1.0/">
]><svg xmlns="http://www.w3.org/2000/svg" width="16" height="16" viewBox="-0.9 0 16 16" preserveAspectRatio="xMinYMid meet" overflow="visible" enable-background="new -0.9 0 16 16"><path d="M2.3 4.8l4.4-.8c.8 1.2 1.4 2.6 1.7 4.1.8-1.1 1.4-2 1.9-2.5.6-.7 1-1.1 1.4-1.3.4-.2.8-.3 1.2-.3.5 0 .8.1 1.1.4.2.3.4.6.4 1s-.1.7-.4 1c-.2.3-.6.4-.9.4-.3 0-.6 0-.9-.1-.3-.1-.6-.1-.7-.1-.4 0-.7.1-1 .4-.6.3-1.2 1-1.8 2.1.7 2.5 1.3 4 1.7 4.6.3.3.5.5.8.5.2 0 .4-.1.6-.2.2-.2.6-.6 1.1-1.3l.5.3c-.7 1.2-1.5 2-2.2 2.5-.5.4-1.1.6-1.6.6s-1-.1-1.3-.4c-.4-.2-.7-.6-.9-1.2-.3-.5-.6-1.4-1-2.6-1 1.2-1.7 2.2-2.3 2.7-.6.6-1 .9-1.4 1.1s-.9.3-1.3.3-.8-.1-1-.4-.4-.5-.4-.9.1-.8.4-1.1c.3-.3.6-.4 1.1-.4.2 0 .5.1.8.2.4.2.7.3.9.3.2 0 .5-.1.7-.2.3-.1.6-.4 1-.8.1-.2.5-.7 1.1-1.6-.8-3-1.4-4.8-1.9-5.3-.2-.4-.6-.6-1-.6-.2 0-.5 0-.8.1v-.5zm4.2-4.8h7.3l-.8 2.6h-7.3l.8-2.6z" fill="#999"/></svg>

<?xml version="1.0" encoding="utf-8"?>
<!-- Generator: Adobe Illustrator 15.1.0, SVG Export Plug-In  -->
<!DOCTYPE svg PUBLIC "-//W3C//DTD SVG 1.1//EN" "http://www.w3.org/Graphics/SVG/1.1/DTD/svg11.dtd" [
	<!ENTITY ns_flows "http://ns.adobe.com/Flows/1.0/">
]>
<svg version="1.1"
	 xmlns="http://www.w3.org/2000/svg" xmlns:xlink="http://www.w3.org/1999/xlink" xmlns:a="http://ns.adobe.com/AdobeSVGViewerExtensions/3.0/"
	 x="0px" y="0px" width="16px" height="16px" viewBox="-0.9 0 16 16" style="overflow:visible;enable-background:new -0.9 0 16 16;"
	 xml:space="preserve" preserveAspectRatio="xMinYMid meet">
<defs>
</defs>
<path style="fill:#29a1c4;" d="M2.3,4.8l4.4-0.8c0.8,1.2,1.4,2.6,1.7,4.1C9.2,7,9.8,6.1,10.3,5.6c0.6-0.7,1-1.1,1.4-1.3
	c0.4-0.2,0.8-0.3,1.2-0.3c0.5,0,0.8,0.1,1.1,0.4c0.2,0.3,0.4,0.6,0.4,1c0,0.4-0.1,0.7-0.4,1c-0.2,0.3-0.6,0.4-0.9,0.4
	c-0.3,0-0.6,0-0.9-0.1c-0.3-0.1-0.6-0.1-0.7-0.1c-0.4,0-0.7,0.1-1,0.4C9.9,7.3,9.3,8,8.7,9.1c0.7,2.5,1.3,4,1.7,4.6
	c0.3,0.3,0.5,0.5,0.8,0.5c0.2,0,0.4-0.1,0.6-0.2c0.2-0.2,0.6-0.6,1.1-1.3l0.5,0.3c-0.7,1.2-1.5,2-2.2,2.5c-0.5,0.4-1.1,0.6-1.6,0.6
	c-0.5,0-1-0.1-1.3-0.4c-0.4-0.2-0.7-0.6-0.9-1.2c-0.3-0.5-0.6-1.4-1-2.6c-1,1.2-1.7,2.2-2.3,2.7c-0.6,0.6-1,0.9-1.4,1.1
	S1.8,16,1.4,16c-0.4,0-0.8-0.1-1-0.4S0,15.1,0,14.7c0-0.4,0.1-0.8,0.4-1.1c0.3-0.3,0.6-0.4,1.1-0.4c0.2,0,0.5,0.1,0.8,0.2
	c0.4,0.2,0.7,0.3,0.9,0.3c0.2,0,0.5-0.1,0.7-0.2c0.3-0.1,0.6-0.4,1-0.8C5,12.5,5.4,12,6,11.1c-0.8-3-1.4-4.8-1.9-5.3
	C3.9,5.4,3.5,5.2,3.1,5.2c-0.2,0-0.5,0-0.8,0.1L2.3,4.8z M6.5,0h7.3L13,2.6H5.7L6.5,0z"/>
</svg>
